svg/fluentui-system-icons/ic_fluent_building_bank_link_16_regular.svg

<svg width="16" height="16" viewBox="0 0 16 16" fill="none" xmlns="http://www.w3.org/2000/svg">
<path d="M8 5.00085C8.41421 5.00085 8.75 4.66507 8.75 4.25085C8.75 3.83664 8.41421 3.50085 8 3.50085C7.58579 3.50085 7.25 3.83664 7.25 4.25085C7.25 4.66507 7.58579 5.00085 8 5.00085ZM8.73631 1.4548C8.30759 1.10623 7.69315 1.10621 7.2644 1.45474L2.26246 5.52088C1.65374 6.01571 2.00364 7.00084 2.78811 7.00084H3V11.2008C2.40639 11.5042 2 12.1217 2 12.8342V13.5009C2 13.777 2.22386 14.0009 2.5 14.0009H5.33682C5.18915 13.69 5.08595 13.3539 5.03544 13.0009H3V12.8342C3 12.374 3.3731 12.0009 3.83333 12.0009H5.03544C5.14331 11.2468 5.49152 10.5703 6 10.0514V7.00084H7.5L7.5 9.14579C7.81685 9.05149 8.15251 9.00085 8.5 9.00085L8.5 7.00084H10V9.00085H11V7.00084H12V9.00085H12.5C12.6698 9.00085 12.8367 9.01294 13 9.0363V7.00084H13.2116C13.9961 7.00084 14.346 6.01578 13.7374 5.52092L8.73631 1.4548ZM7.89518 2.2307C7.95643 2.18091 8.04421 2.18091 8.10546 2.23071L12.7425 6.00084H3.25736L7.89518 2.2307ZM5 11.0009H4V7.00084H5V11.0009ZM8.5 10.0009C7.11929 10.0009 6 11.1201 6 12.5009C6 13.8816 7.11929 15.0009 8.5 15.0009H9C9.27614 15.0009 9.5 14.777 9.5 14.5009C9.5 14.2247 9.27614 14.0009 9 14.0009H8.5C7.67157 14.0009 7 13.3293 7 12.5009C7 11.6724 7.67157 11.0009 8.5 11.0009H9C9.27614 11.0009 9.5 10.777 9.5 10.5009C9.5 10.2247 9.27614 10.0009 9 10.0009H8.5ZM12 10.0009C11.7239 10.0009 11.5 10.2247 11.5 10.5009C11.5 10.777 11.7239 11.0009 12 11.0009H12.5C13.3284 11.0009 14 11.6724 14 12.5009C14 13.3293 13.3284 14.0009 12.5 14.0009H12C11.7239 14.0009 11.5 14.2247 11.5 14.5009C11.5 14.777 11.7239 15.0009 12 15.0009H12.5C13.8807 15.0009 15 13.8816 15 12.5009C15 11.1201 13.8807 10.0009 12.5 10.0009H12ZM8 12.5009C8 12.2247 8.22386 12.0009 8.5 12.0009H12.5C12.7761 12.0009 13 12.2247 13 12.5009C13 12.777 12.7761 13.0009 12.5 13.0009H8.5C8.22386 13.0009 8 12.777 8 12.5009Z" fill="#212121"/>
</svg>

<svg xmlns="http://www.w3.org/2000/svg" width="16" height="16"><path d="M8 5a.75.75 0 1 0 0-1.5A.75.75 0 0 0 8 5Zm.736-3.545a1.167 1.167 0 0 0-1.472 0L2.262 5.52C1.654 6.016 2.004 7 2.788 7H3v4.2c-.594.303-1 .92-1 1.633v.667a.5.5 0 0 0 .5.5h2.837a3.477 3.477 0 0 1-.302-1H3v-.167c0-.46.373-.833.833-.833h1.202A3.49 3.49 0 0 1 6 10.05V7h1.5v2.145A3.5 3.5 0 0 1 8.5 9V7H10v2h1V7h1v2h.5c.17 0 .337.012.5.035V7.001h.212c.784 0 1.134-.985.525-1.48l-5-4.066Zm-.84.776a.167.167 0 0 1 .21 0L12.741 6H3.258l4.638-3.77ZM5 11H4V7h1v4Zm3.5-1a2.5 2.5 0 1 0 0 5H9a.5.5 0 0 0 0-1h-.5a1.5 1.5 0 0 1 0-3H9a.5.5 0 0 0 0-1h-.5Zm3.5 0a.5.5 0 1 0 0 1h.5a1.5 1.5 0 1 1 0 3H12a.5.5 0 1 0 0 1h.5a2.5 2.5 0 0 0 0-5H12Zm-4 2.5a.5.5 0 0 1 .5-.5h4a.5.5 0 1 1 0 1h-4a.5.5 0 0 1-.5-.5Z"/></svg>
